docs/img/facebook.svg

<svg width="60" height="61" viewBox="0 0 60 61" fill="none" xmlns="http://www.w3.org/2000/svg">
<circle cx="30.0436" cy="30.0433" r="23.4713" fill="white"/>
<path fill-rule="evenodd" clip-rule="evenodd" d="M27.7479 0.056514C23.3937 0.473835 20.084 1.40025 16.467 3.21435C11.7067 5.60174 7.29263 9.65219 4.38958 14.2972C2.29371 17.6504 0.764667 21.9862 0.147253 26.3262C-0.0490845 27.7065 -0.0490845 32.3395 0.147253 33.7197C0.638978 37.1765 1.5526 40.2045 2.98001 43.1083C4.59496 46.3935 6.17681 48.6007 8.78835 51.2123C11.3714 53.7952 13.6129 55.4082 16.7751 56.9594C18.9815 58.0418 20.4061 58.5686 22.6429 59.1297C28.5124 60.6019 34.3991 60.3196 40.1336 58.2909C41.8719 57.6761 44.9063 56.1553 46.4663 55.1173C50.7496 52.267 54.2894 48.3316 56.6331 43.8139C58.7537 39.7264 59.8147 35.6709 59.9803 31.0205C60.1584 26.0154 59.1292 21.2518 56.9024 16.7742C55.4401 13.8341 53.8122 11.5298 51.5266 9.16469C48.9921 6.54176 46.506 4.73212 43.1803 3.0889C39.7041 1.37138 36.4652 0.454588 32.6182 0.0991145C31.4226 -0.0113183 28.7045 -0.0351417 27.7479 0.056514ZM37.9306 16.6056L37.9619 19.5596L35.8182 19.5982C32.5768 19.6567 32.5595 19.6743 32.5595 22.9191V24.9766H35.3174C36.8343 24.9766 38.0753 24.9924 38.0753 25.0116C38.0753 25.0309 37.9433 26.3037 37.7819 27.8403C37.6205 29.3767 37.4885 30.734 37.4885 30.8566C37.4885 31.0682 37.3659 31.0792 35.024 31.0792H32.5595V39.7636V45.6314H28.9215H25.2834V39.7636V31.0792H23.5817H21.8801V28.0279V24.9766H23.5681H25.2562L25.3135 22.2481C25.3785 19.1591 25.5004 18.4973 26.2771 17.0193C27.2426 15.1819 29.0114 14.0166 31.2875 13.7184C31.6967 13.6647 33.3517 13.6278 34.9653 13.6362L37.8993 13.6517L37.9306 16.6056Z" fill="#3B5AB9"/>
</svg>

<svg width="60" height="61" fill="none" xmlns="http://www.w3.org/2000/svg"><circle cx="30.044" cy="30.043" r="23.471" fill="#fff"/><path fill-rule="evenodd" clip-rule="evenodd" d="M27.748.057C23.394.474 20.084 1.4 16.467 3.214 11.707 5.602 7.293 9.652 4.39 14.297 2.294 17.65.765 21.987.147 26.327c-.196 1.38-.196 6.012 0 7.393.492 3.456 1.406 6.485 2.833 9.388 1.615 3.286 3.197 5.493 5.808 8.104 2.583 2.583 4.825 4.196 7.987 5.747 2.207 1.083 3.631 1.61 5.868 2.17 5.87 1.473 11.756 1.19 17.49-.838 1.739-.615 4.773-2.136 6.333-3.174 4.284-2.85 7.823-6.785 10.167-11.303 2.12-4.088 3.182-8.143 3.347-12.794.178-5.005-.85-9.768-3.078-14.246-1.462-2.94-3.09-5.244-5.375-7.61-2.535-2.622-5.021-4.432-8.347-6.075C39.704 1.37 36.465.455 32.618.099c-1.195-.11-3.914-.134-4.87-.042zM37.93 16.606l.03 2.954-2.143.038c-3.241.059-3.258.076-3.258 3.321v2.058h2.757c1.517 0 2.758.015 2.758.035 0 .019-.132 1.292-.293 2.828-.161 1.537-.293 2.894-.293 3.017 0 .211-.123.222-2.465.222h-2.465v14.552h-7.276V31.08H21.88v-6.102h3.376l.058-2.729c.064-3.089.186-3.75.963-5.229.966-1.837 2.734-3.002 5.01-3.3.41-.054 2.065-.091 3.678-.083l2.934.016.032 2.954z" fill="#3B5AB9"/></svg>
